X: 8
T: Health To The Ladies
Z: JACKB
S: https://thesession.org/tunes/327#setting51468
R: jig
M: 6/8
L: 1/8
K: Amaj
|:f|ecA BAF|AFE EFA|B3 BAB|cBB B2f|
ecA BAF|AFE EFA|B3 BAB|cAA A2:|
|:A|cee dff|cee ecA|cee a2f|ecA B2A|
cee dff|cee ecA|B3 BAB|cAA A2:|

